Suru++-Ubuntu/apps/scalable/calibre-gui.svg

<svg width="256" height="256" version="1.1" viewBox="0 0 67.73 67.73" xmlns="http://www.w3.org/2000/svg" xmlns:xlink="http://www.w3.org/1999/xlink">
 <defs>
  <linearGradient id="linearGradient1108" x1="296" x2="296" y1="-212" y2="236" gradientUnits="userSpaceOnUse">
   <stop style="stop-color:#ffffff" offset="0"/>
   <stop style="stop-color:#ffffff;stop-opacity:.09803922" offset=".125"/>
   <stop style="stop-color:#000000;stop-opacity:.09803922" offset=".925"/>
   <stop style="stop-color:#000000;stop-opacity:.49803922" offset="1"/>
  </linearGradient>
  <clipPath id="clipPath1082-3-36753">
   <path d="M 361.9375,-212 C 507.2348,-212 528,-191.28677 528,-46.125 V 70.125 C 528,215.28618 507.2348,236 361.9375,236 H 214.0625 C 68.7652,236 48,215.28618 48,70.125 V -46.125 C 48,-191.28677 68.7652,-212 214.0625,-212 Z" style="fill:#8c59d9"/>
  </clipPath>
  <linearGradient id="linearGradient907" x1="93.46" x2="248" y1="69.921" y2="263.092" gradientTransform="matrix(.26458333 0 0 .26458333 -6.993467 221.97263)" gradientUnits="userSpaceOnUse">
   <stop style="stop-color:#7839b7" offset="0"/>
   <stop style="stop-color:#8c59d9" offset="1"/>
  </linearGradient>
  <filter id="filter931" x="-.01" y="-.01" width="1.023" height="1.025" style="color-interpolation-filters:sRGB">
   <feGaussianBlur stdDeviation="1.16"/>
  </filter>
  <filter id="filter925" x="-.02" y="-.03" width="1.046" height="1.05" style="color-interpolation-filters:sRGB">
   <feGaussianBlur stdDeviation="2.32"/>
  </filter>
 </defs>
 <g transform="translate(0,-229.26666)">
  <path transform="matrix(.26458333 0 0 .26458333 0 232.67026)" d="m162.53675 5.568c72.64865 0 83.03125 10.356615 83.03125 82.9375v58.125c0 72.58059-10.3826 82.9375-83.03125 82.9375h-73.9375c-72.64865 0-83.03125-10.35691-83.03125-82.9375v-58.125c0-72.580885 10.3826-82.9375 83.03125-82.9375z" style="filter:url(#filter925);opacity:.2"/>
  <path transform="matrix(.26458333 0 0 .26458333 0 232.67026)" d="m162.53675 4.568c72.64865 0 83.03125 10.356615 83.03125 82.9375v58.125c0 72.58059-10.3826 82.9375-83.03125 82.9375h-73.9375c-72.64865 0-83.03125-10.35691-83.03125-82.9375v-58.125c0-72.580885 10.3826-82.9375 83.03125-82.9375z" style="filter:url(#filter931);opacity:.1"/>
  <path d="m43.004515 233.61429c19.221622 0 21.968685 2.74019 21.968685 21.94388v15.37891c0 19.20361-2.747063 21.94388-21.968685 21.94388h-19.56263c-19.221622 0-21.968685-2.74027-21.968685-21.94388v-15.37891c0-19.20369 2.7470627-21.94388 21.968685-21.94388z" style="fill:url(#linearGradient907)"/>
  <path d="m1.4732 263.24763v7.68945c0 19.20361 2.7470627 21.94388 21.968685 21.94388h19.56263c19.221622 0 21.968685-2.74027 21.968685-21.94388v-7.68945z" style="fill:#ffffff;opacity:.1"/>
  <path transform="matrix(.13229167 0 0 .13229167 -4.8768 261.66013)" d="M 361.9375,-212 C 507.2348,-212 528,-191.28677 528,-46.125 V 70.125 C 528,215.28618 507.2348,236 361.9375,236 H 214.0625 C 68.7652,236 48,215.28618 48,70.125 V -46.125 C 48,-191.28677 68.7652,-212 214.0625,-212 Z" clip-path="url(#clipPath1082-3-36753)" style="fill:none;opacity:.4;stroke-linecap:round;stroke-linejoin:round;stroke-width:8;stroke:url(#linearGradient1108)"/>
  <rect x="10.05" y="240.12" width="8.467" height="44.979" rx=".144" ry=".218" style="fill:#d64310"/>
  <rect x="19.1" y="242.76" width="9.922" height="42.333" rx=".169" ry=".206" style="fill:#2b898f"/>
  <rect x="29.43" y="250.7" width="13.097" height="34.396" rx=".223" ry=".167" style="fill:#234db8"/>
  <g transform="rotate(-8.9312942,48.847648,288.12816)">
   <rect x="48.95" y="240.12" width="8.467" height="44.979" rx=".144" ry=".218" style="fill:#eab305"/>
   <rect x="48.95" y="240.12" width="4.233" height="44.979" rx=".072" ry=".218" style="fill:#ffffff;opacity:.2"/>
   <rect x="51.46" y="242.61" width="3.44" height="19.996" rx=".066" ry=".218" style="fill:#ffffff;opacity:.5"/>
  </g>
  <rect x="10.05" y="240.12" width="4.233" height="44.979" rx=".072" ry=".218" style="fill:#ffffff;opacity:.2"/>
  <rect x="12.57" y="242.5" width="3.44" height="40.217" rx=".149" ry=".219" style="fill:#ffffff;opacity:.5"/>
  <rect x="29.43" y="277.91" width="13.097" height="2.117" rx=".217" ry=".148" style="fill:#4b4d56"/>
  <rect x="19.1" y="245.94" width="9.922" height="2.117" rx=".164" ry=".148" style="fill:#a0a0a0"/>
  <rect x="19.1" y="270.81" width="9.922" height="11.607" rx=".164" ry=".813" style="fill:#ffcc41"/>
  <rect x="19.1" y="242.76" width="4.961" height="42.333" rx=".084" ry=".206" style="fill:#ffffff;opacity:.5"/>
  <rect x="29.43" y="253.2" width="13.097" height="11.607" rx=".217" ry=".813" style="fill:#c6c7d6"/>
  <rect x="29.43" y="260.97" width="13.097" height="2.117" rx=".217" ry=".148" style="fill:#5a5c64"/>
  <rect x="29.43" y="250.7" width="6.548" height="34.396" rx=".111" ry=".167" style="fill:#ffffff;opacity:.2"/>
 </g>
</svg>

<svg xmlns="http://www.w3.org/2000/svg" xmlns:xlink="http://www.w3.org/1999/xlink" width="256" height="256" version="1.1" viewBox="0 0 67.73 67.73">
 <defs>
  <linearGradient id="linearGradient1108" x1="296" x2="296" y1="-212" y2="236" gradientUnits="userSpaceOnUse" xlink:href="#linearGradient1013"/>
  <linearGradient id="linearGradient1013">
   <stop style="stop-color:#ffffff" offset="0"/>
   <stop offset=".125" style="stop-color:#ffffff;stop-opacity:0.09803922"/>
   <stop offset=".925" style="stop-color:#000000;stop-opacity:0.09803922"/>
   <stop style="stop-color:#000000;stop-opacity:0.49803922" offset="1"/>
  </linearGradient>
  <clipPath id="clipPath1082-3-36753" clipPathUnits="userSpaceOnUse">
   <path style="fill:#8c59d9" d="M 361.9375,-212 C 507.2348,-212 528,-191.28677 528,-46.125 V 70.125 C 528,215.28618 507.2348,236 361.9375,236 H 214.0625 C 68.7652,236 48,215.28618 48,70.125 V -46.125 C 48,-191.28677 68.7652,-212 214.0625,-212 Z"/>
  </clipPath>
  <linearGradient id="linearGradient907" x1="93.46" x2="248" y1="69.921" y2="263.092" gradientTransform="matrix(0.26458333,0,0,0.26458333,-6.993467,221.97263)" gradientUnits="userSpaceOnUse" xlink:href="#linearGradient905"/>
  <linearGradient id="linearGradient905">
   <stop style="stop-color:#7839b7" offset="0"/>
   <stop style="stop-color:#8c59d9" offset="1"/>
  </linearGradient>
  <filter id="filter931" width="1.023" height="1.025" x="-.01" y="-.01" style="color-interpolation-filters:sRGB">
   <feGaussianBlur stdDeviation="1.16"/>
  </filter>
  <filter id="filter925" width="1.046" height="1.05" x="-.02" y="-.03" style="color-interpolation-filters:sRGB">
   <feGaussianBlur stdDeviation="2.32"/>
  </filter>
 </defs>
 <g transform="translate(0,-229.26666)">
  <path style="opacity:0.2;filter:url(#filter925)" d="m 162.53675,5.568 c 72.64865,0 83.03125,10.356615 83.03125,82.9375 v 58.125 c 0,72.58059 -10.3826,82.9375 -83.03125,82.9375 H 88.59925 C 15.9506,229.568 5.5679999,219.21109 5.5679999,146.6305 V 88.5055 C 5.5679999,15.924615 15.9506,5.568 88.59925,5.568 Z" transform="matrix(0.26458333,0,0,0.26458333,0,232.67026)"/>
  <path d="m 162.53675,4.568 c 72.64865,0 83.03125,10.356615 83.03125,82.9375 v 58.125 c 0,72.58059 -10.3826,82.9375 -83.03125,82.9375 H 88.59925 C 15.9506,228.568 5.5679999,218.21109 5.5679999,145.6305 V 87.5055 C 5.5679999,14.924615 15.9506,4.568 88.59925,4.568 Z" transform="matrix(0.26458333,0,0,0.26458333,0,232.67026)" style="opacity:0.1;filter:url(#filter931)"/>
  <path d="m 43.004515,233.61429 c 19.221622,0 21.968685,2.74019 21.968685,21.94388 v 15.37891 c 0,19.20361 -2.747063,21.94388 -21.968685,21.94388 H 23.441885 C 4.2202627,292.88096 1.4732,290.14069 1.4732,270.93708 v -15.37891 c 0,-19.20369 2.7470627,-21.94388 21.968685,-21.94388 z" style="fill:url(#linearGradient907)"/>
  <path d="m 1.4732,263.24763 v 7.68945 c 0,19.20361 2.7470627,21.94388 21.968685,21.94388 h 19.56263 c 19.221622,0 21.968685,-2.74027 21.968685,-21.94388 v -7.68945 z" style="opacity:0.1;fill:#ffffff"/>
  <path style="opacity:0.4;fill:none;stroke:url(#linearGradient1108);stroke-width:8;stroke-linecap:round;stroke-linejoin:round" d="M 361.9375,-212 C 507.2348,-212 528,-191.28677 528,-46.125 V 70.125 C 528,215.28618 507.2348,236 361.9375,236 H 214.0625 C 68.7652,236 48,215.28618 48,70.125 V -46.125 C 48,-191.28677 68.7652,-212 214.0625,-212 Z" clip-path="url(#clipPath1082-3-36753)" transform="matrix(0.13229167,0,0,0.13229167,-4.8768,261.66013)"/>
  <rect width="8.467" height="44.979" x="10.05" y="240.12" rx=".144" ry=".218" style="fill:#d64310"/>
  <rect style="fill:#2b898f" width="9.922" height="42.333" x="19.1" y="242.76" rx=".169" ry=".206"/>
  <rect width="13.097" height="34.396" x="29.43" y="250.7" rx=".223" ry=".167" style="fill:#234db8"/>
  <g transform="rotate(-8.9312942,48.847648,288.12816)">
   <rect width="8.467" height="44.979" x="48.95" y="240.12" rx=".144" ry=".218" style="fill:#eab305"/>
   <rect style="opacity:0.2;fill:#ffffff" width="4.233" height="44.979" x="48.95" y="240.12" rx=".072" ry=".218"/>
   <rect style="opacity:0.5;fill:#ffffff" width="3.44" height="19.996" x="51.46" y="242.61" rx=".066" ry=".218"/>
  </g>
  <rect style="opacity:0.2;fill:#ffffff" width="4.233" height="44.979" x="10.05" y="240.12" rx=".072" ry=".218"/>
  <rect width="3.44" height="40.217" x="12.57" y="242.5" rx=".149" ry=".219" style="opacity:0.5;fill:#ffffff"/>
  <rect width="13.097" height="2.117" x="29.43" y="277.91" rx=".217" ry=".148" style="fill:#4b4d56"/>
  <rect style="fill:#a0a0a0" width="9.922" height="2.117" x="19.1" y="245.94" rx=".164" ry=".148"/>
  <rect style="fill:#ffcc41" width="9.922" height="11.607" x="19.1" y="270.81" rx=".164" ry=".813"/>
  <rect width="4.961" height="42.333" x="19.1" y="242.76" rx=".084" ry=".206" style="opacity:0.5;fill:#ffffff"/>
  <rect width="13.097" height="11.607" x="29.43" y="253.2" rx=".217" ry=".813" style="fill:#c6c7d6"/>
  <rect style="fill:#5a5c64" width="13.097" height="2.117" x="29.43" y="260.97" rx=".217" ry=".148"/>
  <rect style="opacity:0.2;fill:#ffffff" width="6.548" height="34.396" x="29.43" y="250.7" rx=".111" ry=".167"/>
 </g>
</svg>
